icons/globe.svg

<svg viewBox="0 0 24 24" fill="currentColor" xmlns="http://www.w3.org/2000/svg"><path fill-rule="evenodd" clip-rule="evenodd" d="M8.31993 3.59507C6.72682 4.19892 5.34979 5.24201 4.33669 6.57649H6.56607C6.77244 6.03023 7.00953 5.52035 7.27369 5.05416C7.58154 4.51087 7.93214 4.01804 8.31993 3.59507ZM3.67737 7.57649C3.01187 8.74877 2.602 10.0852 2.52356 11.5099H5.64105C5.68118 10.1065 5.88934 8.77461 6.23457 7.57649H3.67737ZM2.52328 12.5099C2.6009 13.9344 3.00985 15.2708 3.67442 16.4432H6.2344C5.88923 15.2451 5.68112 13.9132 5.64103 12.5099H2.52328ZM4.33275 17.4432C5.34758 18.782 6.72848 19.828 8.32641 20.4323C7.93604 20.0078 7.58325 19.5125 7.27369 18.9662C7.00943 18.4998 6.77227 17.9897 6.56584 17.4432H4.33275ZM14.6963 20.4306C16.2924 19.8261 17.6716 18.7808 18.6855 17.4432H16.4553C16.2489 17.9897 16.0118 18.4998 15.7475 18.9662C15.4384 19.5117 15.0861 20.0064 14.6963 20.4306ZM19.3438 16.4432C20.0084 15.2708 20.4173 13.9344 20.495 12.5099H17.3801C17.3401 13.9132 17.132 15.2451 16.7868 16.4432H19.3438ZM20.4947 11.5099C20.4162 10.0852 20.0064 8.74877 19.3409 7.57649H16.7866C17.1318 8.77461 17.34 10.1065 17.3801 11.5099H20.4947ZM18.6815 6.57649C17.6694 5.24327 16.294 4.2009 14.7028 3.59679C15.09 4.01937 15.4401 4.51161 15.7475 5.05416C16.0117 5.52035 16.2487 6.03023 16.4551 6.57649H18.6815ZM11.5091 2.01367C5.98666 2.01367 1.50977 6.49025 1.50977 12.0125C1.50977 17.5347 5.98666 22.0113 11.5091 22.0113C17.0316 22.0113 21.5085 17.5347 21.5085 12.0125C21.5085 6.49025 17.0316 2.01367 11.5091 2.01367ZM14.8775 5.54715C15.0582 5.86612 15.2261 6.21021 15.3791 6.57649H12.0136V3.07098C13.063 3.27781 14.0738 4.12878 14.8775 5.54715ZM12.0136 7.57649H15.7425C16.1086 8.7456 16.3364 10.0806 16.3797 11.5099H12.0136V7.57649ZM12.0136 12.5099H16.3797C16.3364 13.9392 16.1087 15.2741 15.7427 16.4432H12.0136V12.5099ZM12.0136 17.4432H15.3794C15.2262 17.8097 15.0583 18.154 14.8775 18.4732C14.0738 19.8916 13.063 20.7425 12.0136 20.9493V17.4432ZM11.0136 17.4432V20.9505C9.96197 20.7457 8.94895 19.8942 8.14372 18.4732C7.96288 18.154 7.79494 17.8097 7.6418 17.4432H11.0136ZM11.0136 16.4432H7.27852C6.91245 15.2741 6.68475 13.9392 6.64146 12.5099H11.0136V16.4432ZM11.0136 11.5099H6.64148C6.68481 10.0806 6.91258 8.7456 7.27871 7.57649H11.0136V11.5099ZM11.0136 6.57649H7.64206C7.79513 6.21021 7.96298 5.86612 8.14372 5.54715C8.94896 4.12609 9.96197 3.27458 11.0136 3.06981V6.57649Z"/></svg>

<svg xmlns="http://www.w3.org/2000/svg" fill="none" width="16" height="16" viewBox="0 0 24 24"><path fill="#141414" fill-rule="evenodd" d="M8.32 3.6a9.02 9.02 0 0 0-3.98 2.98h2.23c.2-.55.44-1.06.7-1.53.31-.54.66-1.03 1.05-1.45ZM3.68 7.58a8.95 8.95 0 0 0-1.16 3.93h3.12c.04-1.4.25-2.74.6-3.93H3.67ZM2.52 12.5a8.95 8.95 0 0 0 1.15 3.93h2.56c-.34-1.2-.55-2.53-.59-3.93H2.52Zm1.81 4.93a9.02 9.02 0 0 0 4 3 7.97 7.97 0 0 1-1.06-1.47c-.26-.47-.5-.98-.7-1.53H4.33Zm10.37 3a9.02 9.02 0 0 0 3.99-3h-2.23c-.21.55-.45 1.06-.71 1.53-.31.54-.66 1.04-1.05 1.46Zm4.64-4a8.95 8.95 0 0 0 1.16-3.93h-3.12c-.04 1.4-.25 2.74-.6 3.93h2.56Zm1.15-4.93a8.95 8.95 0 0 0-1.15-3.93H16.8c.34 1.2.55 2.53.59 3.93h3.11Zm-1.8-4.93A9.02 9.02 0 0 0 14.7 3.6c.39.42.74.91 1.05 1.45.26.47.5.98.7 1.53h2.23ZM11.5 2a10 10 0 1 0 0 20 10 10 0 0 0 0-20Zm3.37 3.54c.18.32.35.66.5 1.03H12v-3.5c1.05.2 2.06 1.05 2.87 2.47ZM12 7.58h3.73c.37 1.17.6 2.5.64 3.93h-4.37V7.58Zm0 4.93h4.37a14.74 14.74 0 0 1-.64 3.93h-3.73v-3.93Zm0 4.93h3.37c-.15.37-.32.71-.5 1.03-.8 1.42-1.82 2.27-2.87 2.48v-3.5Zm-1 0v3.51c-1.05-.2-2.06-1.06-2.87-2.48a9.6 9.6 0 0 1-.5-1.03h3.37Zm0-1H7.28c-.37-1.17-.6-2.5-.64-3.93h4.37v3.93Zm0-4.93H6.64c.04-1.43.27-2.76.64-3.93H11v3.93Zm0-4.93H7.64c.16-.37.32-.71.5-1.03.8-1.42 1.82-2.28 2.87-2.48v3.5Z" clip-rule="evenodd"/></svg>
